logos/google-meet.svg

<?xml version="1.0" encoding="UTF-8"?>
<svg width="256px" height="211px" viewBox="0 0 256 211" version="1.1" xmlns="http://www.w3.org/2000/svg" xmlns:xlink="http://www.w3.org/1999/xlink" preserveAspectRatio="xMidYMid">
    <g>
        <polygon fill="#00832D" points="144.822496 105.321856 169.778926 133.848796 203.341343 155.294133 209.178931 105.50196 203.341343 56.8331137 169.136495 75.6715889"></polygon>
        <path d="M0.000557021739,150.659712 L0.000557021739,193.089915 C0.000557021739,202.77838 7.86384724,210.643527 17.5541688,210.643527 L59.9843714,210.643527 L68.7704609,178.585069 L59.9843714,150.659712 L30.8744153,141.873623 L0.000557021739,150.659712 Z" fill="#0066DA"></path>
        <polygon fill="#E94235" points="59.9838143 9.9475983e-14 0 59.9838143 30.875715 68.7494798 59.9838143 59.9838143 68.6102243 32.4390893"></polygon>
        <polygon fill="#2684FC" points="0.000557021739 150.679394 59.9843714 150.679394 59.9843714 59.9832573 0.000557021739 59.9832573"></polygon>
        <path d="M241.658683,25.3977775 L203.341157,56.8342278 L203.341157,155.29339 L241.818362,186.852385 C247.577967,191.364261 256.003849,187.251584 256.003849,179.930462 L256.003849,32.1785888 C256.003849,24.7757699 247.377439,20.6835169 241.658683,25.3977775" fill="#00AC47"></path>
        <path d="M144.822496,105.321856 L144.822496,150.659712 L59.9843714,150.659712 L59.9843714,210.643527 L185.787731,210.643527 C195.478053,210.643527 203.341343,202.77838 203.341343,193.089915 L203.341343,155.294133 L144.822496,105.321856 Z" fill="#00AC47"></path>
        <path d="M185.787731,0 L59.9843714,0 L59.9843714,59.9838143 L144.822496,59.9838143 L144.822496,105.32167 L203.341343,56.832928 L203.341343,17.5536117 C203.341343,7.86329022 195.478053,0 185.787731,0" fill="#FFBA00"></path>
    </g>
</svg>

<svg width="256" height="211" xmlns="http://www.w3.org/2000/svg" preserveAspectRatio="xMidYMid">
	<path fill="#00832D" d="m144.822 105.322 24.957 28.527 33.562 21.445 5.838-49.792-5.838-48.669-34.205 18.839z"/>
	<path d="M0 150.66v42.43c0 9.688 7.864 17.554 17.554 17.554h42.43l8.786-32.059-8.786-27.925-29.11-8.786L.001 150.66Z" fill="#0066DA"/>
	<path fill="#E94235" d="M59.984 0 0 59.984l30.876 8.765 29.108-8.765 8.626-27.545z"/>
	<path fill="#2684FC" d="M0 150.68h59.984V59.982H.001z"/>
	<path d="M241.659 25.398 203.34 56.834v98.46l38.477 31.558c5.76 4.512 14.186.4 14.186-6.922V32.18c0-7.403-8.627-11.495-14.345-6.781" fill="#00AC47"/>
	<path d="M144.822 105.322v45.338H59.984v59.984h125.804c9.69 0 17.553-7.866 17.553-17.554v-37.796l-58.519-49.972Z" fill="#00AC47"/>
	<path d="M185.788 0H59.984v59.984h84.838v45.338l58.52-48.49V17.555c0-9.69-7.864-17.554-17.554-17.554" fill="#FFBA00"/>
</svg>
